!!!OTL: Die Brombeeren (29b), S. 112
!!!id: T0154
**kern
*clefG2
*k[f#]
*G:
{4d
=1
4g
4d
4d
4g
=2
4e
4e
4e}
=3
{4g
=4
4f#
4a
4cc
4f#
=5
4g}
2r
=6
{8g
8a
=7
8b
8b
8b
8b
4b
8b
8dd
=8
4dd
4cc
4a}
4r
=9
{4d
4f#
4a
4ee
=10
4ee
8dd
8cc
8b}
8r
=11
{8dd
8dd
=12
4dd
4cc
4e
4f#
=13
4g}
2r
=14
{8g
8a
=15
8b
8b
8b
8b
4b
8b
8dd
=16
4dd
4cc
4a}
4r
=17
{4d
4f#
4a
4ee
=18
4ee
8dd
8cc
8b}
8r
=19
{8dd
8dd
=20
4dd
4cc
4e
4f#
=21
4g}
2r
==
*-
!!!minrhy: 8
!!!meters: 4/4 ]  ZZ[8
!!!cut: Die Brombeeren (29b), S. 112
!!!reg: Luxemburg
!!!trd: Singendes Volk, Esch-Alzette 1937 posth.
!!!rhy1: X_  X_X_X_X_  X_X_X_   (x2)
!!!rhy2: X_  X_X_X_X_  X_0_
!!!key: T0154  08  G 4/4 ]  ZZ[8
!!!mod: HEPTATONIK IONISCH]  AMBITUS[9
!!!kad: -61231231
!!!akz: 1-5-6-6_-741_3352_-5263_5-61_3352_-5263_5-61_
!!!fot: 'a__b__c__d__e__c__d__e__
!!!for: 'a__aw_b__aw_aw_b__aw_aw_
!!!fok: '^a_^__^a_^a_Vd_^a_^a_Vd_
!! PHRAS[VORWIEGEND AUFTAKTIG]
!!!fkt: Liebeslieder
!!!bem1: Hamm, ? Welter, 26.3.1933;
!!!bem2: (29c)- Heffingen, fff Ewen, 10.3.1933
!! THILL, Mathias:
!! PR[29] 2K[2] 2G[9] 3K[7] 3G[3] 4A[4] 4Ü[0] 5A[0] 6K[0] 6G[2]
!! 7K[2] 7G[0] 8A[0] MEHR[0] SI[29] ABS[92] SR[11] SP[18]
!! ST[20] 2k[7] 2g[23] 3k[8] 3g[0] 4d[0] 4ü[0] 5d[2] 6k[0] 6g[2]
!! 7k[0] 7g[0] 8d[0] mehr[0] si[41] dm[-12] sr[29] sp[12]
!! 1F[2] 2F[81] 3F[10] 4F[2] LF[0] 2P[0] 3P[4] 4P[0] TRI[0] DF[5] AB[97]
!! TF[0] U3K[0] U3[0] U4[0] U4Ü[0] U5[4] U6K[0] U6[0] U7K[0] U7[0]
!! N1[10] N2K[0] N2[12] N3K[0] N3[20] N4[11] N4Ü[0] N5[33] N6K[0] N6[10]
!!!n7k: 0] N7[0] O1[0] O2K[0] O2[0] O3K[0] O3[0] HÖ[0
